src/cards/Simple_d_a.svg

<?xml version="1.0" encoding="UTF-8" standalone="no"?>
<!-- Created with Inkscape (http://www.inkscape.org/) --><svg height="190.00000" id="svg2" inkscape:version="0.41" sodipodi:docbase="/home/nicu/Desktop/simple" sodipodi:docname="d_a.svg" sodipodi:version="0.32" version="1.0" width="140.00000" x="0.0000000" xmlns="http://www.w3.org/2000/svg" xmlns:cc="http://web.resource.org/cc/" xmlns:dc="http://purl.org/dc/elements/1.1/" xmlns:inkscape="http://www.inkscape.org/namespaces/inkscape" xmlns:rdf="http://www.w3.org/1999/02/22-rdf-syntax-ns#" xmlns:sodipodi="http://inkscape.sourceforge.net/DTD/sodipodi-0.dtd" xmlns:svg="http://www.w3.org/2000/svg" xmlns:xlink="http://www.w3.org/1999/xlink" y="0.0000000">
  <metadata>
    <rdf:RDF xmlns:cc="http://web.resource.org/cc/" xmlns:dc="http://purl.org/dc/elements/1.1/" xmlns:rdf="http://www.w3.org/1999/02/22-rdf-syntax-ns#">
      <cc:Work rdf:about="">
        <dc:title>card</dc:title>
        <dc:description></dc:description>
        <dc:subject>
          <rdf:Bag>
            <rdf:li>card</rdf:li>
            <rdf:li>simple</rdf:li>
          </rdf:Bag>
        </dc:subject>
        <dc:publisher>
          <cc:Agent rdf:about="http://www.openclipart.org/">
            <dc:title>Open Clip Art Library</dc:title>
          </cc:Agent>
        </dc:publisher>
        <dc:creator>
          <cc:Agent>
            <dc:title>Nicu Buculei</dc:title>
          </cc:Agent>
        </dc:creator>
        <dc:rights>
          <cc:Agent>
            <dc:title>Nicu Buculei</dc:title>
          </cc:Agent>
        </dc:rights>
        <dc:date></dc:date>
        <dc:format>image/svg+xml</dc:format>
        <dc:type rdf:resource="http://purl.org/dc/dcmitype/StillImage"/>
        <cc:license rdf:resource="http://web.resource.org/cc/PublicDomain"/>
        <dc:language>en</dc:language>
      </cc:Work>
      <cc:License rdf:about="http://web.resource.org/cc/PublicDomain">
        <cc:permits rdf:resource="http://web.resource.org/cc/Reproduction"/>
        <cc:permits rdf:resource="http://web.resource.org/cc/Distribution"/>
        <cc:permits rdf:resource="http://web.resource.org/cc/DerivativeWorks"/>
      </cc:License>
    </rdf:RDF>
  </metadata>
  <sodipodi:namedview bordercolor="#666666" borderopacity="1.0" id="base" inkscape:current-layer="svg2" inkscape:cx="70.000003" inkscape:cy="95.000001" inkscape:pageopacity="0.0" inkscape:pageshadow="2" inkscape:window-height="791" inkscape:window-width="1152" inkscape:window-x="0" inkscape:window-y="26" inkscape:zoom="1.9105263" pagecolor="#ffffff"/>
  <defs id="defs3">
    <linearGradient id="linearGradient3920">
      <stop id="stop3922" offset="0.0000000" style="stop-color:#ffffff;stop-opacity:1.0000000;"/>
      <stop id="stop3924" offset="1.0000000" style="stop-color:#ffffff;stop-opacity:0.0000000;"/>
    </linearGradient>
    <linearGradient id="linearGradient2060">
      <stop id="stop2062" offset="0.0000000" style="stop-color:#ebf0d0;stop-opacity:1.0000000;"/>
      <stop id="stop2064" offset="1.0000000" style="stop-color:#ffffeb;stop-opacity:1.0000000;"/>
    </linearGradient>
    <linearGradient id="linearGradient1575">
      <stop id="stop1576" offset="0.0000000" style="stop-color:#ffffff;stop-opacity:0.50000000;"/>
      <stop id="stop1577" offset="1.0000000" style="stop-color:#ffffff;stop-opacity:0.0000000;"/>
    </linearGradient>
    <linearGradient gradientTransform="translate(0.000000,-1.000000)" gradientUnits="userSpaceOnUse" id="linearGradient4853" x1="2.0000000" x2="109.00000" xlink:href="#linearGradient2060" y1="63.099518" y2="128.69501"/>
    <linearGradient gradientUnits="userSpaceOnUse" id="linearGradient3926" x1="233.88673" x2="159.43488" xlink:href="#linearGradient3920" y1="142.78372" y2="209.56096"/>
    <linearGradient gradientTransform="scale(0.900444,1.110563)" gradientUnits="userSpaceOnUse" id="linearGradient1555" x1="336.94821" x2="382.38123" xlink:href="#linearGradient1575" y1="2.4244735" y2="42.539261"/>
    <linearGradient id="linearGradient1461">
      <stop id="stop1463" offset="0.0000000" style="stop-color:#ffffff;stop-opacity:0.50000000;"/>
      <stop id="stop1465" offset="1.0000000" style="stop-color:#ffffff;stop-opacity:0.0000000;"/>
    </linearGradient>
    <linearGradient gradientTransform="matrix(0.900444,0.000000,0.000000,1.110563,-12.67155,196.4597)" gradientUnits="userSpaceOnUse" id="linearGradient1473" x1="336.94821" x2="382.38123" xlink:href="#linearGradient1575" y1="2.4244735" y2="42.539261"/>
    <linearGradient gradientTransform="translate(0.000000,-1.000000)" gradientUnits="userSpaceOnUse" id="linearGradient3792" x1="2.0000000" x2="109.00000" xlink:href="#linearGradient2060" y1="63.099518" y2="128.69501"/>
  </defs>
  <g id="g5630">
    <path d="M 21.000000,5.0000000 L 124.00000,5.0000000 C 132.86400,5.0000000 140.00000,12.136000 140.00000,21.000000 L 140.00000,174.00000 C 140.00000,182.86400 132.86400,190.00000 124.00000,190.00000 L 21.000000,190.00000 C 12.136000,190.00000 5.0000000,182.86400 5.0000000,174.00000 L 5.0000000,21.000000 C 5.0000000,12.136000 12.136000,5.0000000 21.000000,5.0000000 z " id="rect2070" style="fill:#000000;fill-opacity:0.49803922;stroke:none;stroke-width:0.20000000;stroke-miterlimit:4.0000000;stroke-dashoffset:0.0000000;stroke-opacity:1.0000000"/>
    <path d="M 17.000000,1.0000000 L 120.00000,1.0000000 C 128.86400,1.0000000 136.00000,8.1360000 136.00000,17.000000 L 136.00000,170.00000 C 136.00000,178.86400 128.86400,186.00000 120.00000,186.00000 L 17.000000,186.00000 C 8.1360000,186.00000 1.0000000,178.86400 1.0000000,170.00000 L 1.0000000,17.000000 C 1.0000000,8.1360000 8.1360000,1.0000000 17.000000,1.0000000 z " id="rect1300" style="fill:#ffffff;fill-opacity:1.0000000;stroke:none;stroke-width:0.20000000;stroke-miterlimit:4.0000000;stroke-dashoffset:0.0000000;stroke-opacity:1.0000000"/>
    <path d="M 19.000000,3.0000000 L 122.00000,3.0000000 C 130.86400,3.0000000 138.00000,10.136000 138.00000,19.000000 L 138.00000,172.00000 C 138.00000,180.86400 130.86400,188.00000 122.00000,188.00000 L 19.000000,188.00000 C 10.136000,188.00000 3.0000000,180.86400 3.0000000,172.00000 L 3.0000000,19.000000 C 3.0000000,10.136000 10.136000,3.0000000 19.000000,3.0000000 z " id="path5624" style="fill:#c7891f;fill-opacity:1.0000000;stroke:none;stroke-width:0.20000000;stroke-miterlimit:4.0000000;stroke-dashoffset:0.0000000;stroke-opacity:1.0000000"/>
    <path d="M 18.000000,1.9999995 L 121.00000,1.9999995 C 129.86400,1.9999995 137.00000,9.1359995 137.00000,18.000000 L 137.00000,171.00000 C 137.00000,179.86400 129.86400,187.00000 121.00000,187.00000 L 18.000000,187.00000 C 9.1360000,187.00000 2.0000000,179.86400 2.0000000,171.00000 L 2.0000000,18.000000 C 2.0000000,9.1359995 9.1360000,1.9999995 18.000000,1.9999995 z " id="rect1306" style="fill:url(#linearGradient4853);fill-opacity:1.0000000;stroke:none;stroke-width:0.20000000;stroke-miterlimit:4.0000000;stroke-dashoffset:0.0000000;stroke-opacity:1.0000000"/>
  </g>
  <path d="M 25.078906,36.774534 L 15.077649,36.774534 L 13.499377,42.240029 L 7.0699976,42.240029 L 16.257199,12.240088 L 23.882742,12.240088 L 33.069943,42.240029 L 26.640564,42.240029 L 25.078906,36.774534 M 16.672534,31.208571 L 23.467407,31.208571 L 20.078278,19.272894 L 16.672534,31.208571" id="text1481" style="font-size:37.418766;font-style:normal;font-variant:normal;font-weight:bold;font-stretch:normal;fill:#ff0000;fill-opacity:1.0000000;stroke:none;stroke-width:1.0000000px;stroke-linecap:butt;stroke-linejoin:miter;stroke-opacity:1.0000000;font-family:Bitstream Vera Sans;text-anchor:start;writing-mode:lr-tb"/>
  <path d="M 113.61105,152.09552 L 123.61231,152.09552 L 125.19057,146.63002 L 131.61996,146.63002 L 122.43276,176.62997 L 114.80721,176.62997 L 105.62001,146.63002 L 112.04939,146.63002 L 113.61105,152.09552 M 122.01742,157.66148 L 115.22255,157.66148 L 118.61168,169.59716 L 122.01742,157.66148" id="text3802" style="font-size:37.418766;font-style:normal;font-variant:normal;font-weight:bold;font-stretch:normal;fill:#ff0000;fill-opacity:1.0000000;stroke:none;stroke-width:1.0000000px;stroke-linecap:butt;stroke-linejoin:miter;stroke-opacity:1.0000000;font-family:Bitstream Vera Sans;text-anchor:start;writing-mode:lr-tb"/>
  <path d="M 20.409550,48.665000 C 16.283710,56.910480 13.275310,61.163050 7.0700000,65.704560 C 12.942390,70.191570 17.082700,74.829030 20.530180,82.325000 C 23.609430,75.203780 27.376590,69.895050 33.920000,65.481900 C 27.338020,62.132990 23.527370,56.828250 20.409550,48.665000 z " id="path1608" style="fill:#ff0000;fill-opacity:1.0000000;fill-rule:evenodd;stroke:none;stroke-width:1.0000000pt;stroke-linecap:butt;stroke-linejoin:round;stroke-opacity:1.0000000"/>
  <path d="M 118.33956,106.34000 C 114.21371,114.58548 111.20531,118.83805 105.00000,123.37956 C 110.87239,127.86657 115.01271,132.50403 118.46019,140.00000 C 121.53944,132.87878 125.30659,127.57005 131.85000,123.15690 C 125.26803,119.80799 121.45738,114.50325 118.33956,106.34000 z " id="path1518" style="fill:#ff0000;fill-opacity:1.0000000;fill-rule:evenodd;stroke:none;stroke-width:1.0000000pt;stroke-linecap:butt;stroke-linejoin:round;stroke-opacity:1.0000000"/>
  <path d="M 69.276497,59.050000 C 60.416314,76.768228 53.955817,85.906327 40.630000,95.665311 C 53.240876,105.30718 62.132133,115.27235 69.535549,131.38000 C 76.148195,116.07763 84.238118,104.67001 98.290000,95.186850 C 84.155290,87.990574 75.971972,76.591529 69.276497,59.050000 z " id="path3794" style="fill:#ff0000;fill-opacity:1.0000000;fill-rule:evenodd;stroke:none;stroke-width:1.0000000pt;stroke-linecap:butt;stroke-linejoin:round;stroke-opacity:1.0000000"/>
</svg>

<?xml version="1.0" encoding="UTF-8" standalone="no"?>
<svg xmlns:rdf="http://www.w3.org/1999/02/22-rdf-syntax-ns#" xmlns="http://www.w3.org/2000/svg" sodipodi:docname="d_a.svg" height="190" sodipodi:version="0.32" width="140" version="1.0" xmlns:xlink="http://www.w3.org/1999/xlink" y="0" x="0" xmlns:cc="http://web.resource.org/cc/" xmlns:dc="http://purl.org/dc/elements/1.1/" sodipodi:docbase="/home/nicu/Desktop/simple" xmlns:sodipodi="http://inkscape.sourceforge.net/DTD/sodipodi-0.dtd">
 <sodipodi:namedview bordercolor="#666666" pagecolor="#ffffff" borderopacity="1.0"/>
 <defs>
  <linearGradient id="a" y2="128.7" gradientUnits="userSpaceOnUse" y1="63.1" gradientTransform="translate(0 -1)" x2="109" x1="2">
   <stop stop-color="#ebf0d0" offset="0"/>
   <stop stop-color="#ffffeb" offset="1"/>
  </linearGradient>
 </defs>
 <path fill-opacity=".49804" d="m21 5h103c8.86 0 16 7.136 16 16v153c0 8.86-7.14 16-16 16h-103c-8.864 0-16-7.14-16-16v-153c0-8.864 7.136-16 16-16z"/>
 <g>
  <path fill="#fff" d="m17 1h103c8.86 0 16 7.136 16 16v153c0 8.86-7.14 16-16 16h-103c-8.864 0-16-7.14-16-16v-153c0-8.864 7.136-16 16-16z"/>
  <path fill="#c7891f" d="m19 3h103c8.86 0 16 7.136 16 16v153c0 8.86-7.14 16-16 16h-103c-8.864 0-16-7.14-16-16v-153c0-8.864 7.136-16 16-16z"/>
  <path fill="url(#a)" d="m18 2h103c8.86 0 16 7.136 16 16v153c0 8.86-7.14 16-16 16h-103c-8.864 0-16-7.14-16-16v-153c0-8.864 7.136-16 16-16z"/>
 </g>
 <g fill="#f00">
  <path d="m25.079 36.775h-10.001l-1.579 5.465h-6.429l9.187-30h7.626l9.187 30h-6.429l-1.562-5.465m-8.406-5.566h6.794l-3.389-11.936-3.405 11.936"/>
  <path d="m113.61 152.1h10l1.58-5.47h6.43l-9.19 30h-7.62l-9.19-30h6.43l1.56 5.47m8.41 5.56h-6.8l3.39 11.94 3.41-11.94"/>
  <g fill-rule="evenodd">
   <path d="m20.41 48.665c-4.126 8.245-7.135 12.498-13.34 17.04 5.872 4.487 10.013 9.124 13.46 16.62 3.079-7.121 6.847-12.43 13.39-16.843-6.582-3.349-10.393-8.654-13.51-16.817z"/>
   <path d="m118.34 106.34c-4.13 8.25-7.13 12.5-13.34 17.04 5.87 4.49 10.01 9.12 13.46 16.62 3.08-7.12 6.85-12.43 13.39-16.84-6.58-3.35-10.39-8.66-13.51-16.82z"/>
   <path d="m69.276 59.05c-8.86 17.718-15.32 26.856-28.646 36.615 12.611 9.645 21.502 19.605 28.906 35.715 6.612-15.3 14.702-26.71 28.754-36.193-14.135-7.196-22.318-18.595-29.014-36.137z"/>
  </g>
 </g>
</svg>
